modules/hawcons-filled/icons/tag-remove.svg

<?xml version="1.0" encoding="UTF-8" standalone="no"?>
<svg width="32px" height="32px" viewBox="0 0 32 32" version="1.1" xmlns="http://www.w3.org/2000/svg" xmlns:xlink="http://www.w3.org/1999/xlink" xmlns:sketch="http://www.bohemiancoding.com/sketch/ns">
    <!-- Generator: Sketch 3.0.3 (7891) - http://www.bohemiancoding.com/sketch -->
    <title>icon 149 tag remove</title>
    <desc>Created with Sketch.</desc>
    <defs></defs>
    <g id="Page-1" stroke="none" stroke-width="1" fill="none" fill-rule="evenodd" sketch:type="MSPage">
        <g id="icon-149-tag-remove" sketch:type="MSArtboardGroup" fill="#929292">
            <path d="M4.01331559,16.0133156 L2,14 L2,5.99961498 C2,4.88743329 2.89525812,4 3.99961498,4 L12,4 L25.3809027,17.3809027 C26.1640508,18.1640508 26.168017,19.4319586 25.3884415,20.2115341 L18.2115341,27.3884415 C17.433119,28.1668566 16.1646418,28.1646418 15.3809027,27.3809027 L12.9866844,24.9866844 C13.6282885,23.9791534 14,22.7829857 14,21.5 C14,17.9101489 11.0898511,15 7.5,15 C6.21701435,15 5.02084661,15.3717115 4.01331559,16.0133156 L4.01331559,16.0133156 L4.01331559,16.0133156 Z M7.5,11 C8.32842717,11 9,10.3284272 9,9.5 C9,8.67157283 8.32842717,8 7.5,8 C6.67157283,8 6,8.67157283 6,9.5 C6,10.3284272 6.67157283,11 7.5,11 L7.5,11 Z M7.5,27 C10.5375663,27 13,24.5375663 13,21.5 C13,18.4624337 10.5375663,16 7.5,16 C4.46243373,16 2,18.4624337 2,21.5 C2,24.5375663 4.46243373,27 7.5,27 L7.5,27 Z M4,21 L4,22 L11,22 L11,21 L4,21 L4,21 Z" id="tag-remove" sketch:type="MSShapeGroup"></path>
        </g>
    </g>
</svg>

<svg width="32" height="32" viewBox="0 0 32 32" xmlns="http://www.w3.org/2000/svg"><path d="M4.013 16.013L2 14V6c0-1.113.895-2 2-2h8l13.38 13.38c.784.784.788 2.052.008 2.832l-7.176 7.176a2.003 2.003 0 0 1-2.831-.007l-2.394-2.394a6.5 6.5 0 0 0-8.973-8.973zM7.5 11a1.5 1.5 0 1 0 0-3 1.5 1.5 0 0 0 0 3zm0 16a5.5 5.5 0 1 0 0-11 5.5 5.5 0 0 0 0 11zM4 21v1h7v-1H4z" fill="#929292" fill-rule="evenodd"/></svg>
